assets/Woman construction worker/Medium/Flat/woman_construction_worker_flat_medium.svg

<svg width="32" height="32" viewBox="0 0 32 32" fill="none" xmlns="http://www.w3.org/2000/svg">
<path d="M24.25 13.8546C24.25 14.4148 24.1232 14.9433 23.8908 15.4189C23.8169 15.5775 23.8169 15.7572 23.8908 15.9157C24.1232 16.3808 24.25 16.8988 24.25 17.459C24.25 19.4145 22.6655 21 20.7113 21H11.2887C9.33451 21 7.75 19.4145 7.75 17.459C7.75 16.9093 7.87676 16.3808 8.10916 15.9157C8.1831 15.7572 8.1831 15.5669 8.10916 15.4084C7.87676 14.9433 7.75 14.4042 7.75 13.844C7.75 13.1041 7.97183 12.417 8.35211 11.8462L11 9.00004L20.7113 8.90137L23.6479 11.8568C24.0282 12.4276 24.25 13.1146 24.25 13.8546Z" fill="#593B39"/>
<path d="M10.5 16C11.4665 16 12.25 15.2165 12.25 14.25C12.25 13.2835 11.4665 12.5 10.5 12.5C9.5335 12.5 8.75 13.2835 8.75 14.25C8.75 15.2165 9.5335 16 10.5 16Z" fill="#BB806E"/>
<path d="M21.5 16C22.4665 16 23.25 15.2165 23.25 14.25C23.25 13.2835 22.4665 12.5 21.5 12.5C20.5335 12.5 19.75 13.2835 19.75 14.25C19.75 15.2165 20.5335 16 21.5 16Z" fill="#BB806E"/>
<path d="M8.25 22.5035C6.17638 24.3961 4.79803 27.0375 4.54285 30H8.25L9.19872 26.2427L8.25 22.5035Z" fill="#8B62BF"/>
<path d="M13.75 30H18.25L19.9213 24.9652L18.25 19.72C17.5224 19.5757 16.77 19.5 16 19.5C15.23 19.5 14.4776 19.5757 13.75 19.72L12.5286 24.9652L13.75 30Z" fill="#8B62BF"/>
<path d="M23.75 22.5036L22.4134 26.2427L23.75 30H27.4571C27.2019 27.0375 25.8236 24.3961 23.75 22.5036Z" fill="#8B62BF"/>
<path d="M13.75 19.7202C13.1485 19.8395 12.5638 20.0058 12 20.2149L11.1254 25.0909L12 30.0002H13.75V19.7202Z" fill="#FF6723"/>
<path d="M18.25 19.7202C18.8515 19.8395 19.4362 20.0058 20 20.215L20.9056 25.0909L20 29.9901H18.25V19.7202Z" fill="#FF6723"/>
<path d="M8.25 22.5037C8.78888 22.0119 9.37472 21.5706 10 21.1875L10.916 25.5516L10 29.99H8.25V22.5037Z" fill="#FF6723"/>
<path d="M22 21.1875C22.6253 21.5707 23.2111 22.0119 23.75 22.5037V29.99H22L21.4919 25.9076L22 21.1875Z" fill="#FF6723"/>
<path d="M15.9956 22.75C14.8918 22.75 14 21.942 14 20.942V19.75H18V20.942C17.9912 21.934 17.0993 22.75 15.9956 22.75Z" fill="#B87A66"/>
<path d="M12 20.2148C11.2985 20.4751 10.6293 20.8019 10 21.1875V30.0001H12V20.2148Z" fill="#FFF478"/>
<path d="M22 21.1875C21.3707 20.8019 20.7015 20.4751 20 20.2148V30.0001H22V21.1875Z" fill="#FFF478"/>
<path d="M20.2708 10.7086H16.8037C15.4274 10.7086 14.1457 10.0201 13.3682 8.87612C13.2421 8.68546 12.9479 8.71724 12.8639 8.92909L12.7798 9.14093C12.5382 9.75528 12.0654 10.2319 11.4876 10.4861C11.4561 10.5073 11.414 10.5179 11.372 10.5391C11.1199 10.6556 10.521 11.0687 10.5 12.1068L10.6471 15.5916C10.7732 18.6845 13.1371 20.75 16.0053 20.75C18.8734 20.75 21.2373 18.6845 21.3634 15.5916L21.5 12.2762C21.4895 10.8039 20.4704 10.7086 20.2708 10.7086Z" fill="#C68D7B"/>
<path d="M12.9618 12.5C13.5418 12.5 14.0218 12.91 14.3218 13.36C14.0482 13.4448 13.7806 13.5221 13.5149 13.5989C13.091 13.7214 12.6721 13.8425 12.2418 13.99L11.7418 13.54C11.5418 13.35 11.5518 13.02 11.7818 12.86C12.1118 12.63 12.5518 12.5 12.9618 12.5Z" fill="black"/>
<path d="M18.86 12.5C18.28 12.5 17.8 12.91 17.5 13.36C17.7736 13.4448 18.0412 13.5221 18.3069 13.5989C18.7307 13.7214 19.1497 13.8425 19.58 13.99L20.08 13.54C20.28 13.35 20.27 13.02 20.04 12.86C19.71 12.63 19.27 12.5 18.86 12.5Z" fill="black"/>
<path d="M12.0096 13.68C12.1676 13.02 12.7603 12.54 13.4517 12.54C14.1826 12.54 14.7851 13.06 14.9135 13.76C14.9431 13.91 14.8147 14.05 14.6666 14.05H12.296C12.1084 14.05 11.9602 13.87 12.0096 13.68Z" fill="white"/>
<path d="M19.9904 13.68C19.8324 13.02 19.2397 12.54 18.5483 12.54C17.8273 12.54 17.2248 13.06 17.0865 13.76C17.0569 13.91 17.1853 14.05 17.3334 14.05H19.704C19.8916 14.05 20.0398 13.87 19.9904 13.68Z" fill="white"/>
<path d="M12.7307 13.7901C12.7307 13.2601 13.1554 12.8301 13.6789 12.8301C14.2024 12.8301 14.6271 13.2601 14.6271 13.8001C14.6271 13.8801 14.6173 13.9701 14.6074 14.0501H12.7702C12.7406 13.9601 12.7307 13.8801 12.7307 13.7901Z" fill="#7D4533"/>
<path d="M19.2792 13.7901C19.2792 13.2601 18.8545 12.8301 18.331 12.8301C17.7976 12.8301 17.3729 13.2601 17.363 13.7901C17.363 13.8801 17.3828 13.9701 17.4025 14.0501H19.2397C19.2693 13.9601 19.2792 13.8801 19.2792 13.7901Z" fill="#7D4533"/>
<path d="M13.6789 13.2402C13.9752 13.2402 14.2221 13.4902 14.2221 13.7902C14.2221 13.8802 14.1925 13.9602 14.153 14.0502H13.1949C13.1554 13.9702 13.1356 13.8802 13.1356 13.7902C13.1356 13.4902 13.3826 13.2402 13.6789 13.2402Z" fill="black"/>
<path d="M18.331 13.2402C18.0347 13.2402 17.7878 13.4902 17.7878 13.7902C17.7878 13.8802 17.8076 13.9602 17.8569 14.0502H18.815C18.8545 13.9702 18.8743 13.8802 18.8743 13.7902C18.8743 13.4902 18.6274 13.2402 18.331 13.2402Z" fill="black"/>
<path d="M13.5208 13.4102C13.5208 13.5041 13.4456 13.5802 13.3528 13.5802C13.2601 13.5802 13.1849 13.5041 13.1849 13.4102C13.1849 13.3163 13.2601 13.2402 13.3528 13.2402C13.4456 13.2402 13.5208 13.3163 13.5208 13.4102Z" fill="white"/>
<path d="M18.2026 13.4102C18.2026 13.5041 18.1274 13.5802 18.0347 13.5802C17.9419 13.5802 17.8668 13.5041 17.8668 13.4102C17.8668 13.3163 17.9419 13.2402 18.0347 13.2402C18.1274 13.2402 18.2026 13.3163 18.2026 13.4102Z" fill="white"/>
<path d="M15.5908 13.534L15.025 15.2816C14.9139 15.6408 15.1867 16 15.5807 16H16.4193C16.8133 16 17.0861 15.6408 16.975 15.2816L16.4092 13.534C16.2779 13.1553 15.712 13.1553 15.5908 13.534Z" fill="#AB6A55"/>
<path d="M16.0019 17.2765C15.4502 17.2765 14.9275 17.1342 14.4919 16.8904C14.3468 16.8092 14.1822 16.9819 14.279 17.1342C14.6468 17.7234 15.2856 18.1196 16.0019 18.1196C16.7278 18.1196 17.3666 17.7234 17.7248 17.1342C17.8119 16.9819 17.657 16.8092 17.5118 16.8904C17.0763 17.1342 16.5536 17.2765 16.0019 17.2765Z" fill="#990838"/>
<path d="M13.772 3H18.2378C20.3192 3 22 4.8238 22 7.05873V9.75H22.2457C22.9436 9.75 23.51 10.31 23.4999 10.9901C23.4999 11.6701 22.9436 12.2301 22.2457 12.2301H9.7542C9.06641 12.2301 8.5 11.6801 8.5 10.9901C8.5 10.31 9.0563 9.75 9.7542 9.75H10V7.05873C10 4.81325 11.6906 3 13.772 3Z" fill="#FFF478"/>
<path d="M10 21.1875C10.6293 20.8019 11.2985 20.4751 12 20.2148V30.0001H10V21.1875Z" fill="#FFF478"/>
<path d="M20 20.2148C20.7015 20.4751 21.3707 20.8019 22 21.1875V30.0001H20V20.2148Z" fill="#FFF478"/>
<path d="M16.9517 2H15.0586C13.9207 2 13 2.88771 13 3.98488V9.75H18.9999V3.98488C19.0103 2.88771 18.0896 2 16.9517 2Z" fill="#FCD53F"/>
</svg>

<svg xmlns="http://www.w3.org/2000/svg" width="32" height="32" fill="none"><path fill="#593B39" d="M24.25 13.855c0 .56-.127 1.088-.36 1.564a.584.584 0 0 0 0 .497c.233.465.36.983.36 1.543A3.54 3.54 0 0 1 20.711 21H11.29a3.54 3.54 0 0 1-3.539-3.541c0-.55.127-1.078.36-1.543a.608.608 0 0 0 0-.508 3.511 3.511 0 0 1-.36-1.564c0-.74.222-1.427.602-1.998L11 9l9.711-.099 2.937 2.956c.38.57.602 1.258.602 1.998Z"/><path fill="#BB806E" d="M10.5 16a1.75 1.75 0 1 0 0-3.5 1.75 1.75 0 0 0 0 3.5ZM21.5 16a1.75 1.75 0 1 0 0-3.5 1.75 1.75 0 0 0 0 3.5Z"/><path fill="#8B62BF" d="M8.25 22.503A11.472 11.472 0 0 0 4.543 30H8.25l.949-3.757-.949-3.74ZM13.75 30h4.5l1.671-5.035-1.671-5.245a11.558 11.558 0 0 0-4.5 0l-1.221 5.245L13.75 30ZM23.75 22.504l-1.337 3.739L23.75 30h3.707a11.471 11.471 0 0 0-3.707-7.496Z"/><path fill="#FF6723" d="M13.75 19.72c-.601.12-1.186.286-1.75.495l-.875 4.876L12 30h1.75V19.72ZM18.25 19.72c.602.12 1.186.286 1.75.495l.906 4.876-.906 4.9h-1.75V19.72ZM8.25 22.504A11.54 11.54 0 0 1 10 21.187l.916 4.365L10 29.99H8.25v-7.486ZM22 21.188c.625.383 1.211.824 1.75 1.316v7.486H22l-.508-4.082.508-4.72Z"/><path fill="#B87A66" d="M15.996 22.75c-1.104 0-1.996-.808-1.996-1.808V19.75h4v1.192c-.009.992-.9 1.808-2.004 1.808Z"/><path fill="#FFF478" d="M12 20.215c-.701.26-1.37.587-2 .973V30h2v-9.785ZM22 21.188a11.456 11.456 0 0 0-2-.973V30h2v-8.813Z"/><path fill="#C68D7B" d="M20.27 10.709h-3.466a4.156 4.156 0 0 1-3.436-1.833.288.288 0 0 0-.504.053l-.084.212a2.45 2.45 0 0 1-1.292 1.345c-.032.021-.074.032-.116.053-.252.117-.851.53-.872 1.568l.147 3.485c.126 3.092 2.49 5.158 5.358 5.158 2.868 0 5.232-2.066 5.358-5.158l.137-3.316c-.01-1.472-1.03-1.567-1.23-1.567Z"/><path fill="#000" d="M12.962 12.5c.58 0 1.06.41 1.36.86-.274.085-.541.162-.807.239-.424.122-.843.243-1.273.391l-.5-.45a.44.44 0 0 1 .04-.68c.33-.23.77-.36 1.18-.36ZM18.86 12.5c-.58 0-1.06.41-1.36.86.274.085.541.162.807.239.424.122.843.243 1.273.391l.5-.45a.44.44 0 0 0-.04-.68 2.13 2.13 0 0 0-1.18-.36Z"/><path fill="#fff" d="M12.01 13.68c.158-.66.75-1.14 1.442-1.14.73 0 1.333.52 1.462 1.22.03.15-.1.29-.247.29h-2.371a.297.297 0 0 1-.286-.37ZM19.99 13.68a1.487 1.487 0 0 0-1.442-1.14c-.72 0-1.323.52-1.461 1.22-.03.15.098.29.246.29h2.371c.188 0 .336-.18.286-.37Z"/><path fill="#7D4533" d="M12.73 13.79c0-.53.425-.96.949-.96.523 0 .948.43.948.97 0 .08-.01.17-.02.25H12.77a.793.793 0 0 1-.04-.26ZM19.28 13.79c0-.53-.425-.96-.949-.96a.971.971 0 0 0-.968.96c0 .09.02.18.04.26h1.837c.03-.09.04-.17.04-.26Z"/><path fill="#000" d="M13.679 13.24c.296 0 .543.25.543.55 0 .09-.03.17-.069.26h-.958a.59.59 0 0 1-.06-.26c0-.3.248-.55.544-.55ZM18.331 13.24a.551.551 0 0 0-.543.55c0 .09.02.17.069.26h.958a.59.59 0 0 0 .06-.26c0-.3-.248-.55-.544-.55Z"/><path fill="#fff" d="M13.52 13.41c0 .094-.074.17-.167.17a.169.169 0 0 1-.168-.17c0-.094.075-.17.168-.17.093 0 .168.076.168.17ZM18.203 13.41c0 .094-.076.17-.168.17a.169.169 0 0 1-.168-.17c0-.094.075-.17.168-.17.092 0 .168.076.168.17Z"/><path fill="#AB6A55" d="m15.59 13.534-.565 1.748c-.111.359.162.718.556.718h.838c.394 0 .667-.36.556-.718l-.566-1.748c-.131-.379-.697-.379-.818 0Z"/><path fill="#990838" d="M16.002 17.276a3.104 3.104 0 0 1-1.51-.386c-.145-.08-.31.092-.213.244.368.59 1.007.986 1.723.986.726 0 1.365-.397 1.723-.986.087-.152-.068-.325-.213-.244a3.103 3.103 0 0 1-1.51.386Z"/><path fill="#FFF478" d="M13.772 3h4.466C20.319 3 22 4.824 22 7.059V9.75h.246c.698 0 1.264.56 1.254 1.24 0 .68-.556 1.24-1.254 1.24H9.754c-.688 0-1.254-.55-1.254-1.24 0-.68.556-1.24 1.254-1.24H10V7.059C10 4.813 11.69 3 13.772 3ZM10 21.188c.63-.386 1.299-.713 2-.973V30h-2v-8.813ZM20 20.215c.701.26 1.37.587 2 .973V30h-2v-9.785Z"/><path fill="#FCD53F" d="M16.952 2h-1.893C13.92 2 13 2.888 13 3.985V9.75h6V3.985C19.01 2.888 18.09 2 16.952 2Z"/></svg>
